!!!OTL: 107b. Graf Friedrich.
!!!ARE: Europa, Mitteleuropa, Deutschland, Schlesien, Hainau, Conradsdorf
!!!SCT: E0107A
!!!TXL: @@DE
!!!YEM: Copyright 1995, estate of Helmut Schaffrath.
**kern	**text
*ICvox	*
*M3/4	*
*k[b-]	*
*F:	*
!LO:TX:a:t=Gehalten.	!
!LO:TX:a:t=Aus Conradsdorf bei Hainau (Schleſten).	!
{4c	Graf
=1	=1
8f	Fried-
8g	-rich
4a	wollt
4a	aus-
=2	=2
4g	-rei-
4f	-ten
8r}	.
{8f	mit
=3	=3
8a	ſei-
8b-	-nen
4cc	Hoch-
4cc	-ʒeit-
=4	=4
4b-	-leu-
8a}	-ten,
{8a	er
8a	ritt
8a	wohl
=5	=5
(4cc	aus,
8b-)	.
8g	er
8g	ritt
8g	wohl
=6	=6
(4b-/	ein,
8a)}	.
{8f	und
8f	hol-
8g	-te
=7	=7
4a	ſich
4cc	ein
8g	Bräu-
8g	-te-
=8	=8
2f}	-lein.
==	==
!!!AGN: erzaehlendes Volks - Lied, Sage, Liebe, Leid, Tod, Ballade ?
!!!ONB: ESAC (Essen Associative Code) Database: ERK1
!!!AMT: simple triple
!!!AIN: vox
!!!EED: Helmut Schaffrath
!!!EEV: 1.0
!!!GTL: Liebesgeschichten mit tragischem Schluss
!!!URL-scan: https://rosdok.uni-rostock.de/mcrviewer/recordIdentifier/rosdok_ppn745146120/iview2/phys_0444.iview2?x=-422.27491384562836&y=1423.9207280322444&scale=0.554360769283424&rotation=0&layout=singlePageLayout
!!!ENC: Anna Maria Matuszewska
!!!EEV: 2024/02/12
*-	*-
